svgs/testbook.svg

<svg width="192" height="192" viewBox="0 0 192 192" fill="none" xmlns="http://www.w3.org/2000/svg">
<path d="M170 163.584C170 167.973 165.443 170.876 161.465 169.023L98.5345 139.694C96.9278 138.945 95.0722 138.945 93.4655 139.694L30.5345 169.023C26.5569 170.876 22 167.973 22 163.584V68.4775C22 66.3628 23.1132 64.4043 24.9301 63.3223L92.9301 22.8281C94.8217 21.7017 97.1783 21.7017 99.0699 22.8281L167.07 63.3223C168.887 64.4043 170 66.3628 170 68.4775V163.584Z" stroke="black" stroke-width="12" stroke-linecap="round" stroke-linejoin="round"/>
<path d="M96 30V135" stroke="black" stroke-width="12" stroke-linecap="round" stroke-linejoin="round"/>
<path d="M112 36V143" stroke="black" stroke-width="8" stroke-linecap="round" stroke-linejoin="round"/>
<path d="M126 42V150" stroke="black" stroke-width="8" stroke-linecap="round" stroke-linejoin="round"/>
<path d="M140 51V157" stroke="black" stroke-width="8" stroke-linecap="round" stroke-linejoin="round"/>
<path d="M154 59V166" stroke="black" stroke-width="8" stroke-linecap="round" stroke-linejoin="round"/>
</svg>

<svg xmlns="http://www.w3.org/2000/svg" width="192" height="192" fill="none" viewBox="0 0 192 192"><path stroke="#000" stroke-linecap="round" stroke-linejoin="round" stroke-width="12" d="M170 163.584c0 4.389-4.557 7.292-8.535 5.439l-62.93-29.329a5.998 5.998 0 0 0-5.07 0l-62.93 29.329c-3.978 1.853-8.535-1.05-8.535-5.439V68.478a6 6 0 0 1 2.93-5.156l68-40.494a6 6 0 0 1 6.14 0l68 40.494a6 6 0 0 1 2.93 5.156v95.106ZM96 30v105"/><path stroke="#000" stroke-linecap="round" stroke-linejoin="round" stroke-width="8" d="M112 36v107m14-101v108m14-99v106m14-98v107"/></svg>
